tools/download-figma-icons/icons/outlined-large/candle.svg

<svg width="64" height="64" viewBox="0 0 64 64" fill="none" xmlns="http://www.w3.org/2000/svg">
<path fill-rule="evenodd" clip-rule="evenodd" d="M33.5 5.5C33.5 6.328 32.828 7 32 7C31.172 7 30.5 6.328 30.5 5.5V1.5C30.5 0.672 31.172 0 32 0C32.828 0 33.5 0.672 33.5 1.5V5.5ZM40.561 11.561C40.268 11.854 39.884 12 39.5 12C39.116 12 38.732 11.854 38.439 11.561C37.854 10.975 37.854 10.025 38.439 9.439L41.439 6.439C42.025 5.854 42.975 5.854 43.561 6.439C44.146 7.025 44.146 7.975 43.561 8.561L40.561 11.561ZM41 19.5C41 20.328 41.672 21 42.5 21H46.5C47.328 21 48 20.328 48 19.5C48 18.672 47.328 18 46.5 18H42.5C41.672 18 41 18.672 41 19.5ZM24.5005 11.9995C24.1165 11.9995 23.7325 11.8535 23.4395 11.5605L20.4395 8.5605C19.8535 7.9745 19.8535 7.0255 20.4395 6.4395C21.0255 5.8535 21.9745 5.8535 22.5605 6.4395L25.5605 9.4395C26.1465 10.0255 26.1465 10.9745 25.5605 11.5605C25.2675 11.8535 24.8835 11.9995 24.5005 11.9995ZM17.5 21H21.5C22.328 21 23 20.328 23 19.5C23 18.672 22.328 18 21.5 18H17.5C16.672 18 16 18.672 16 19.5C16 20.328 16.672 21 17.5 21ZM23 37.5V61H41V37.5C41 35.019 38.981 33 36.5 33H27.5C25.019 33 23 35.019 23 37.5ZM32.04 11.998C30.782 12.247 28 18.231 28 21.464C28 23.197 29.201 24.24 30.5 24.706V22.5C30.5 21.672 31.172 21 32 21C32.828 21 33.5 21.672 33.5 22.5V24.741C34.762 24.312 36 23.308 36 21.464C36 18.02 33.188 12.23 32.04 11.998ZM44 61H48.5C49.328 61 50 61.672 50 62.5C50 63.328 49.328 64 48.5 64H42.5H21.5H15.5C14.672 64 14 63.328 14 62.5C14 61.672 14.672 61 15.5 61H20V37.5C20 33.364 23.364 30 27.5 30H30.5V27.83C27.593 27.22 25 24.938 25 21.464C25 18.356 27.852 9 32.062 9C36.198 9 39 18.356 39 21.464C39 24.978 36.396 27.272 33.5 27.852V30H36.5C40.636 30 44 33.364 44 37.5V61Z" fill="black"/>
</svg>

<svg width="64" height="64" viewBox="0 0 64 64" fill="none" xmlns="http://www.w3.org/2000/svg"><path fill-rule="evenodd" clip-rule="evenodd" d="M33.5 5.5a1.5 1.5 0 0 1-3 0v-4a1.5 1.5 0 0 1 3 0v4Zm7.061 6.061A1.495 1.495 0 0 1 39.5 12a1.502 1.502 0 0 1-1.061-2.561l3-3a1.502 1.502 0 0 1 2.122 0 1.502 1.502 0 0 1 0 2.122l-3 3ZM41 19.5a1.5 1.5 0 0 0 1.5 1.5h4a1.5 1.5 0 0 0 0-3h-4a1.5 1.5 0 0 0-1.5 1.5ZM24.5 12a1.49 1.49 0 0 1-1.06-.44l-3-3a1.5 1.5 0 1 1 2.12-2.12l3 3A1.5 1.5 0 0 1 24.5 12Zm-7 9h4a1.5 1.5 0 0 0 0-3h-4a1.5 1.5 0 0 0 0 3ZM23 37.5V61h18V37.5c0-2.481-2.019-4.5-4.5-4.5h-9a4.505 4.505 0 0 0-4.5 4.5Zm9.04-25.502c-1.258.249-4.04 6.233-4.04 9.466 0 1.733 1.201 2.776 2.5 3.242V22.5a1.5 1.5 0 0 1 3 0v2.241c1.262-.429 2.5-1.433 2.5-3.277 0-3.444-2.812-9.234-3.96-9.466ZM44 61h4.5a1.5 1.5 0 0 1 0 3h-33a1.5 1.5 0 0 1 0-3H20V37.5c0-4.136 3.364-7.5 7.5-7.5h3v-2.17c-2.907-.61-5.5-2.892-5.5-6.366C25 18.356 27.852 9 32.062 9 36.198 9 39 18.356 39 21.464c0 3.514-2.604 5.808-5.5 6.388V30h3c4.136 0 7.5 3.364 7.5 7.5V61Z" fill="currentColor"/></svg>
